templates/img/avataaars.svg

<svg width="264px" height="280px" viewBox="0 0 264 280" version="1.1" xmlns="http://www.w3.org/2000/svg" xmlns:xlink="http://www.w3.org/1999/xlink">
	<desc>
		Created with getavataaars.com
	</desc>
	<defs>
		<circle id="path-1" cx="120" cy="120" r="120">
		</circle>
		<path d="M12,160 C12,226.27417 65.72583,280 132,280 C198.27417,280 252,226.27417 252,160 L264,160 L264,-1.42108547e-14 L-3.19744231e-14,-1.42108547e-14 L-3.19744231e-14,160 L12,160 Z" id="path-3">
		</path>
		<path d="M124,144.610951 L124,163 L128,163 L128,163 C167.764502,163 200,195.235498 200,235 L200,244 L0,244 L0,235 C-4.86974701e-15,195.235498 32.235498,163 72,163 L72,163 L76,163 L76,144.610951 C58.7626345,136.422372 46.3722246,119.687011 44.3051388,99.8812385 C38.4803105,99.0577866 34,94.0521096 34,88 L34,74 C34,68.0540074 38.3245733,63.1180731 44,62.1659169 L44,56 L44,56 C44,25.072054 69.072054,5.68137151e-15 100,0 L100,0 L100,0 C130.927946,-5.68137151e-15 156,25.072054 156,56 L156,62.1659169 C161.675427,63.1180731 166,68.0540074 166,74 L166,88 C166,94.0521096 161.51969,99.0577866 155.694861,99.8812385 C153.627775,119.687011 141.237365,136.422372 124,144.610951 Z" id="path-5">
		</path>
	</defs>
	<g id="Avataaar" stroke="none" stroke-width="1" fill="none" fill-rule="evenodd">
		<g transform="translate(-825.000000, -1100.000000)" id="Avataaar/Circle">
			<g transform="translate(825.000000, 1100.000000)">
				<g id="Circle" stroke-width="1" fill-rule="evenodd" transform="translate(12.000000, 39.000000)">
					<mask id="mask-2" fill="white">
						<use xlink:href="#path-1">
						</use>
					</mask>
					
					<g id="Color/Palette/Blue-01" mask="url(#mask-2)" fill="#F8F9FA">
						<rect id="🖍Color" x="0" y="0" width="240" height="240">
						</rect>
					</g>
				</g>
				<mask id="mask-4" fill="white">
					<use xlink:href="#path-3">
					</use>
				</mask>
				<g id="Mask">
				</g>
				<g id="Avataaar" stroke-width="1" fill-rule="evenodd" mask="url(#mask-4)">
					<g id="Body" transform="translate(32.000000, 36.000000)">
						<mask id="mask-6" fill="white">
							<use xlink:href="#path-5">
							</use>
						</mask>
						<use fill="#D0C6AC" xlink:href="#path-5">
						</use>
						<g id="Skin/👶🏽-03-Brown" mask="url(#mask-6)" fill="#FFDBB4">
							<g transform="translate(-32.000000, 0.000000)" id="Color">
								<rect x="0" y="0" width="264" height="244">
								</rect>
							</g>
						</g>
						<path d="M156,79 L156,102 C156,132.927946 130.927946,158 100,158 C69.072054,158 44,132.927946 44,102 L44,79 L44,94 C44,124.927946 69.072054,150 100,150 C130.927946,150 156,124.927946 156,94 L156,79 Z" id="Neck-Shadow" fill-opacity="0.100000001" fill="#000000" mask="url(#mask-6)">
						</path>
					</g>
					<g id="Clothing/Collar-+-Sweater" transform="translate(0.000000, 170.000000)">
						<defs>
							<path d="M105.192402,29.0517235 L104,29.0517235 L104,29.0517235 C64.235498,29.0517235 32,61.2872215 32,101.051724 L32,110 L232,110 L232,101.051724 C232,61.2872215 199.764502,29.0517235 160,29.0517235 L160,29.0517235 L158.807598,29.0517235 C158.934638,30.0353144 159,31.0364513 159,32.0517235 C159,45.8588423 146.911688,57.0517235 132,57.0517235 C117.088312,57.0517235 105,45.8588423 105,32.0517235 C105,31.0364513 105.065362,30.0353144 105.192402,29.0517235 Z" id="react-path-320">
							</path>
						</defs>
						<mask id="react-mask-321" fill="white">
							<use xlink:href="#react-path-320">
							</use>
						</mask>
						<use id="Clothes" fill="#E6E6E6" fill-rule="evenodd" xlink:href="#react-path-320">
						</use>
						<g id="Color/Palette/Gray-01" mask="url(#react-mask-321)" fill-rule="evenodd" fill="#262E33">
							<rect id="🖍Color" x="0" y="0" width="264" height="110">
							</rect>
						</g>
						<path d="M156,22.2794906 C162.181647,26.8351858 166,33.1057265 166,40.027915 C166,47.2334941 161.862605,53.7329769 155.228997,58.3271669 L149.57933,53.8764929 L145,54.207887 L146,51.0567821 L145.922229,50.995516 C152.022491,47.8530505 156,42.7003578 156,36.8768102 L156,22.2794906 Z M108,21.5714994 C101.232748,26.1740081 97,32.7397769 97,40.027915 C97,47.4261549 101.361602,54.080035 108.308428,58.6915723 L114.42067,53.8764929 L119,54.207887 L118,51.0567821 L118.077771,50.995516 C111.977509,47.8530505 108,42.7003578 108,36.8768102 L108,21.5714994 Z" id="Collar" fill="#F2F2F2" fill-rule="evenodd">
						</path>
					</g>
					<g id="Face" transform="translate(76.000000, 82.000000)" fill="#000000">
						<g id="Mouth/Default" transform="translate(2.000000, 52.000000)" fill-opacity="0.699999988">
							<path d="M40,15 C40,22.7319865 46.2680135,29 54,29 L54,29 C61.7319865,29 68,22.7319865 68,15" id="Mouth">
							</path>
						</g>
						<g id="Nose/Default" transform="translate(28.000000, 40.000000)" fill-opacity="0.16">
							<path d="M16,8 C16,12.418278 21.372583,16 28,16 L28,16 C34.627417,16 40,12.418278 40,8" id="Nose">
							</path>
						</g>
						<g id="Eyes/Default-😀" transform="translate(0.000000, 8.000000)" fill-opacity="0.599999964">
							<circle id="Eye" cx="30" cy="22" r="6">
							</circle>
							<circle id="Eye" cx="82" cy="22" r="6">
							</circle>
						</g>
						<g id="Eyebrow/Outline/Up-Down" fill-opacity="0.599999964" fill-rule="nonzero">
							<path d="M15.5914402,14.1619718 C20.0874642,7.83556966 29.6031809,4.65350252 39.3473715,7.79575991 C40.3986323,8.13476518 41.5256656,7.55736801 41.8646708,6.50610724 C42.2036761,5.45484647 41.6262789,4.32781316 40.5750182,3.98880789 C29.1665516,0.309863172 17.8358054,4.09887835 12.3309495,11.8448183 C11.6910852,12.7451779 11.9022584,13.9937761 12.8026181,14.6336404 C13.7029777,15.2735046 14.9515759,15.0623314 15.5914402,14.1619718 Z" id="Eyebrow">
							</path>
							<path d="M73.6376405,21.1577995 C77.5525501,15.6490895 88.2853148,12.56006 97.5304219,14.8304032 C98.6031199,15.0938282 99.6862617,14.4377829 99.9496867,13.3650849 C100.213112,12.2923868 99.5570664,11.2092451 98.4843684,10.9458201 C87.7477584,8.30920485 75.3194947,11.8862211 70.3771498,18.840646 C69.7372855,19.7410057 69.9484587,20.9896038 70.8488184,21.6294681 C71.749178,22.2693324 72.9977762,22.0581591 73.6376405,21.1577995 Z" id="Eyebrow" transform="translate(85.007549, 16.038421) scale(-1, 1) translate(-85.007549, -16.038421) ">
							</path>
						</g>
					</g>
					<g id="Top" stroke-width="1" fill-rule="evenodd">
						<defs>
							<rect id="react-path-212" x="0" y="0" width="264" height="280">
							</rect>
							<path d="M1,64 C1.34685629,65.488448 2.67275588,65.2226722 3,64 C2.53726005,62.445722 6.29594493,35.2480719 16,28 C19.618222,25.4833872 39.0082164,23.2319099 58.3126144,23.245568 C77.4086061,23.2590787 96.4208396,25.5105561 100,28 C109.704055,35.2480719 113.46274,62.445722 113,64 C113.327244,65.2226722 114.653144,65.488448 115,64 C115.719178,53.7019177 115,0.274362825 58,1 C1,1.72563718 0.280821545,53.7019177 1,64 Z" id="react-path-213">
							</path>
							<filter x="-0.8%" y="-2.0%" width="101.5%" height="108.0%" filterUnits="objectBoundingBox" id="react-filter-209">
								<feOffset dx="0" dy="2" in="SourceAlpha" result="shadowOffsetOuter1">
								</feOffset>
								<feColorMatrix values="0 0 0 0 0   0 0 0 0 0   0 0 0 0 0  0 0 0 0.16 0" type="matrix" in="shadowOffsetOuter1" result="shadowMatrixOuter1">
								</feColorMatrix>
								<feMerge>
									<feMergeNode in="shadowMatrixOuter1">
									</feMergeNode>
									<feMergeNode in="SourceGraphic">
									</feMergeNode>
								</feMerge>
							</filter>
						</defs>
						<mask id="react-mask-210" fill="white">
							<use xlink:href="#react-path-212">
							</use>
						</mask>
						<g id="Mask">
						</g>
						<g id="Top/Short-Hair/The-Caesar" mask="url(#react-mask-210)">
							<g transform="translate(-1.000000, 0.000000)">
								<g id="Facial-Hair/Beard-Light" transform="translate(49.000000, 72.000000)">
									<defs>
										<path d="M101.428403,98.1685688 C98.9148372,100.462621 96.23722,101.494309 92.8529444,100.772863 C92.2705777,100.648833 89.8963391,96.2345713 83.9998344,96.2345713 C78.1033297,96.2345713 75.7294253,100.648833 75.1467245,100.772863 C71.7624488,101.494309 69.0848316,100.462621 66.5712661,98.1685688 C61.8461772,93.855604 57.9166219,87.9081858 60.2778299,81.4191814 C61.5083844,78.0369425 63.5097479,74.3237342 67.1506257,73.2459109 C71.0384163,72.0955419 76.4968931,73.2439051 80.4147542,72.4582708 C81.6840664,72.2035248 83.0706538,71.7508657 83.9998344,71 C84.929015,71.7508657 86.3159365,72.2035248 87.5845805,72.4582708 C91.5027758,73.2439051 96.9612525,72.0955419 100.849043,73.2459109 C104.489921,74.3237342 106.491284,78.0369425 107.722173,81.4191814 C110.083381,87.9081858 106.153826,93.855604 101.428403,98.1685688 M140.081033,26 C136.670693,34.4002532 137.987774,44.8580348 137.356666,53.6758724 C136.844038,60.8431942 135.33712,71.5857526 128.972858,76.214531 C125.718361,78.5816138 119.79436,82.5598986 115.54187,81.4501943 C112.614539,80.6863848 112.302182,72.290096 108.455284,69.1469801 C104.09172,65.5823153 98.6429854,64.0160432 93.1491481,64.2578722 C90.7785381,64.3622683 85.9841367,64.3374908 83.9999331,66.1604584 C82.0157295,64.3374908 77.2216647,64.3622683 74.8510547,64.2578722 C69.3568808,64.0160432 63.9081467,65.5823153 59.5445817,69.1469801 C55.6976839,72.290096 55.3856641,80.6863848 52.4583326,81.4501943 C48.2058427,82.5598986 42.2818421,78.5816138 39.0270077,76.214531 C32.6624096,71.5857526 31.1561652,60.8431942 30.642864,53.6758724 C30.0120926,44.8580348 31.3291729,34.4002532 27.9188335,26 C26.2597768,26 27.3540339,42.1288693 27.3540339,42.1288693 L27.3540339,62.4851205 C27.3856735,77.7732046 36.935095,100.655445 58.1080116,109.393004 C63.2861266,111.52982 75.0153111,115 83.9999331,115 C92.9845551,115 104.71374,111.860188 109.891855,109.723371 C131.064771,100.985813 140.614193,77.7732046 140.646169,62.4851205 L140.646169,42.1288693 C140.646169,42.1288693 141.740089,26 140.081033,26" id="react-path-257">
										</path>
									</defs>
									<mask id="react-mask-256" fill="white">
										<use xlink:href="#react-path-257">
										</use>
									</mask>
									<use id="Lite-Beard" fill="#331B0C" fill-rule="evenodd" xlink:href="#react-path-257">
									</use>
									<g id="Color/Hair/Brown" mask="url(#react-mask-256)" fill="#724133">
										<g transform="translate(-32.000000, 0.000000)" id="Color">
											<rect x="0" y="0" width="264" height="244">
											</rect>
										</g>
									</g>
								</g>
								<g id="Hair" stroke-width="1" fill-rule="evenodd" transform="translate(75.000000, 34.000000)">
									<mask id="react-mask-211" fill="white">
										<use xlink:href="#react-path-213">
										</use>
									</mask>
									<use id="Caesar" fill="#28354B" xlink:href="#react-path-213">
									</use>
									<g id="Skin/👶🏽-03-Brown" mask="url(#react-mask-211)" fill="#724133">
										<g transform="translate(0.000000, 0.000000) " id="Color">
											<rect x="0" y="0" width="264" height="280">
											</rect>
										</g>
									</g>
								</g>
							</g>
						</g>
					</g>
				</g>
			</g>
		</g>
	</g>
</svg>

<svg width="264" height="280" xmlns="http://www.w3.org/2000/svg" xmlns:xlink="http://www.w3.org/1999/xlink">
	<defs>
		<path d="M12 160c0 66.274 53.726 120 120 120s120-53.726 120-120h12V0H0v160h12z" id="path-3" />
		<path d="M124 144.611V163h4c39.765 0 72 32.235 72 72v9H0v-9c0-39.765 32.235-72 72-72h4v-18.389c-17.237-8.189-29.628-24.924-31.695-44.73C38.48 99.058 34 94.052 34 88V74c0-5.946 4.325-10.882 10-11.834V56c0-30.928 25.072-56 56-56s56 25.072 56 56v6.166c5.675.952 10 5.888 10 11.834v14c0 6.052-4.48 11.058-10.305 11.881-2.067 19.806-14.458 36.541-31.695 44.73z" id="path-5" />
		<circle id="path-1" cx="120" cy="120" r="120" />
	</defs>
	<g id="Avataaar" stroke="none" stroke-width="1" fill="none" fill-rule="evenodd">
		<g id="Avataaar/Circle">
			<mask id="mask-4" fill="#fff">
				<use xlink:href="#path-3" />
			</mask>
			<g id="Avataaar" stroke-width="1" fill-rule="evenodd" mask="url(#mask-4)">

			<!-- Body -->
				<g id="Body" transform="translate(32 36)">
					<mask id="mask-6" fill="#fff">
						<use xlink:href="#path-5" />
					</mask>
					<use fill="#D0C6AC" xlink:href="#path-5" />
					<g id="Skin/👶🏽-03-Brown" mask="url(#mask-6)" fill="#FFDBB4">
						<path d="M0 0h264v244H0z" transform="translate(-32)" id="Color" />
					</g>
					<path d="M156 79v23c0 30.928-25.072 56-56 56s-56-25.072-56-56V79v15c0 30.928 25.072 56 56 56s56-25.072 56-56V79z" id="Neck-Shadow" fill-opacity=".1" fill="#000" mask="url(#mask-6)" />
				</g>
			
			<!-- Clothing -->
				<g id="Clothing/Collar-+-Sweater" transform="translate(0 170)">
					<defs>
						<path d="M105.192 29.052H104c-39.765 0-72 32.235-72 72V110h200v-8.948c0-39.765-32.235-72-72-72h-1.192c.127.983.192 1.984.192 3 0 13.807-12.088 25-27 25s-27-11.193-27-25c0-1.016.065-2.017.192-3z" id="react-path-320" />
					</defs>
					<mask id="react-mask-321" fill="#fff">
						<use xlink:href="#react-path-320" />
					</mask>
					<use id="Clothes" fill="#262E33" fill-rule="evenodd" xlink:href="#react-path-320" />
					<g id="Color/Palette/Gray-01" mask="url(#react-mask-321)" fill-rule="evenodd" fill="#262E33">
						<path id="🖍Color" d="M0 0h264v110H0z" />
					</g>
					<path d="M156 22.28c6.182 4.555 10 10.826 10 17.748 0 7.205-4.137 13.705-10.771 18.3l-5.65-4.452-4.579.332 1-3.151-.078-.061C152.022 47.853 156 42.7 156 36.876V22.28zm-48-.709c-6.767 4.603-11 11.169-11 18.457 0 7.398 4.362 14.052 11.308 18.664l6.113-4.816 4.579.332-1-3.151.078-.061C111.978 47.853 108 42.7 108 36.876V21.572z" id="Collar" fill="#F2F2F2" fill-rule="evenodd" />
				</g>

			<!-- Face -->
				<g id="Face" transform="translate(76 82)" fill="#000">
					<g id="MouthDefault" transform="translate(2 52)" fill-opacity=".7">
						<path d="M40 15c0 7.732 6.268 14 14 14s14-6.268 14-14" id="Mouth" />
					</g>
					<g id="Nose/Default" transform="translate(28 40)" fill-opacity=".16">
						<path d="M16 8c0 4.418 5.373 8 12 8s12-3.582 12-8" id="Nose" />
					</g>
					<g id="EyesDefault" transform="translate(0 8)" fill-opacity=".6">
						<circle id="Eye" cx="30" cy="22" r="6" />
						<circle id="Eye" cx="82" cy="22" r="6" />
					</g>
					<g id="EyebrowOutlineUp-Down" fill-opacity=".6" fill-rule="nonzero">
						<path d="M15.591 14.162c4.496-6.326 14.012-9.508 23.756-6.366a2 2 0 101.228-3.807c-11.408-3.68-22.74.11-28.244 7.856a2 2 0 103.26 2.317z" id="Eyebrow" />
						<path d="M73.638 21.158c3.915-5.509 14.647-8.598 23.892-6.328a2 2 0 00.954-3.884c-10.736-2.637-23.165.94-28.107 7.895a2 2 0 103.26 2.317z" id="Eyebrow" transform="matrix(-1 0 0 1 170.015 0)" />
					</g>
				</g>

			<!-- Top -->
				<g id="Top" stroke-width="1" fill-rule="evenodd">
					<defs>
						<path id="react-path-212" d="M0 0h264v280H0z" />
						<path d="M1 64c.347 1.488 1.673 1.223 2 0-.463-1.554 3.296-28.752 13-36 3.618-2.517 23.008-4.768 42.313-4.754C77.409 23.259 96.42 25.51 100 28c9.704 7.248 13.463 34.446 13 36 .327 1.223 1.653 1.488 2 0 .72-10.298 0-63.726-57-63C1 1.726.28 53.702 1 64z" id="react-path-213" />
						<filter x="-.8%" y="-2%" width="101.5%" height="108%" filterUnits="objectBoundingBox" id="react-filter-209">
							<feOffset dy="2" in="SourceAlpha" result="shadowOffsetOuter1" />
							<feColorMatrix values="0 0 0 0 0 0 0 0 0 0 0 0 0 0 0 0 0 0 0.16 0" in="shadowOffsetOuter1" result="shadowMatrixOuter1" />
							<feMerge>
								<feMergeNode in="shadowMatrixOuter1" />
								<feMergeNode in="SourceGraphic" />
							</feMerge>
						</filter>
					</defs>
					<mask id="react-mask-210" fill="#fff">
						<use xlink:href="#react-path-212" />
					</mask>
					<g id="Top/Short-Hair/The-Caesar" mask="url(#react-mask-210)">
						<g transform="translate(-1)">
							<g id="Facial-Hair/Beard-Light" transform="translate(49 72)">
								<defs>
									<path d="M101.428 98.169c-2.513 2.294-5.19 3.325-8.575 2.604-.582-.124-2.957-4.538-8.853-4.538-5.897 0-8.27 4.414-8.853 4.538-3.385.721-6.062-.31-8.576-2.604-4.725-4.313-8.654-10.26-6.293-16.75 1.23-3.382 3.232-7.095 6.873-8.173 3.887-1.15 9.346-.002 13.264-.788 1.27-.254 2.656-.707 3.585-1.458.929.75 2.316 1.204 3.585 1.458 3.918.786 9.376-.362 13.264.788 3.64 1.078 5.642 4.79 6.873 8.173 2.361 6.49-1.568 12.437-6.294 16.75M140.081 26c-3.41 8.4-2.093 18.858-2.724 27.676-.513 7.167-2.02 17.91-8.384 22.539-3.255 2.367-9.179 6.345-13.431 5.235-2.927-.764-3.24-9.16-7.087-12.303-4.363-3.565-9.812-5.131-15.306-4.89-2.37.105-7.165.08-9.15 1.903-1.983-1.823-6.777-1.798-9.148-1.902-5.494-.242-10.943 1.324-15.306 4.889-3.847 3.143-4.16 11.54-7.087 12.303-4.252 1.11-10.176-2.868-13.431-5.235-6.365-4.63-7.87-15.372-8.384-22.54-.63-8.817.686-19.275-2.724-27.675-1.66 0-.565 16.129-.565 16.129v20.356c.032 15.288 9.581 38.17 30.754 46.908C63.286 111.53 75.015 115 84 115s20.714-3.14 25.892-5.277c21.173-8.737 30.722-31.95 30.754-47.238V42.13S141.74 26 140.081 26" id="react-path-257" />
								</defs>
								<mask id="react-mask-256" fill="#fff">
									<use xlink:href="#react-path-257" />
								</mask>
								<use id="Lite-Beard" fill="#331B0C" fill-rule="evenodd" xlink:href="#react-path-257" />
								<g id="Color/Hair/Brown" mask="url(#react-mask-256)" fill="#724133">
									<path d="M0 0h264v244H0z" transform="translate(-32)" id="Color" />
								</g>
							</g>
							<g id="Hair" stroke-width="1" fill-rule="evenodd" transform="translate(75 34)">
								<mask id="react-mask-211" fill="#fff">
									<use xlink:href="#react-path-213" />
								</mask>
								<use id="Caesar" fill="#28354B" xlink:href="#react-path-213" />
								<g id="Skin/👶🏽-03-Brown" mask="url(#react-mask-211)" fill="#724133">
									<path d="M0 0h264v280H0z" id="Color" />
								</g>
							</g>
						</g>
					</g>
				</g>
			</g>
		</g>
	</g>
</svg>
